layout/admin/dist/assets/admin/img/icons/techno.svg

<svg width="20" height="20" viewBox="0 0 20 20" fill="none" xmlns="http://www.w3.org/2000/svg">
<path d="M19.2 0H0.8C0.3575 0 0 0.3575 0 0.8V19.2C0 19.6425 0.3575 20 0.8 20H19.2C19.6425 20 20 19.6425 20 19.2V0.8C20 0.3575 19.6425 0 19.2 0ZM10.0275 10.1525L5.2275 14.1775C5.0975 14.2875 4.9 14.195 4.9 14.025V12.4575C4.9 12.4 4.9275 12.3425 4.9725 12.305L7.7175 10L4.9725 7.695C4.94952 7.67685 4.93103 7.65366 4.91846 7.62721C4.90588 7.60076 4.89957 7.57178 4.9 7.5425V5.975C4.9 5.805 5.0975 5.7125 5.2275 5.8225L10.0275 9.845C10.125 9.925 10.125 10.0725 10.0275 10.1525V10.1525ZM15.1 14.025C15.1 14.135 15.015 14.225 14.9125 14.225H10.2875C10.185 14.225 10.1 14.135 10.1 14.025V12.825C10.1 12.715 10.185 12.625 10.2875 12.625H14.9125C15.015 12.625 15.1 12.715 15.1 12.825V14.025Z" fill="white"/>
</svg>

<svg width="20" height="20" viewBox="0 0 20 20" fill="none" xmlns="http://www.w3.org/2000/svg"><path d="M19.2 0H.8a.8.8 0 00-.8.8v18.4a.8.8 0 00.8.8h18.4a.8.8 0 00.8-.8V.8a.8.8 0 00-.8-.8zm-9.172 10.152l-4.8 4.026a.199.199 0 01-.328-.153v-1.568a.2.2 0 01.072-.152L7.718 10 4.973 7.695a.19.19 0 01-.073-.152V5.975c0-.17.197-.262.327-.152l4.8 4.022a.198.198 0 010 .307zm5.072 3.873c0 .11-.085.2-.188.2h-4.625c-.102 0-.187-.09-.187-.2v-1.2c0-.11.085-.2.188-.2h4.624c.103 0 .188.09.188.2v1.2z" fill="#fff"/></svg>
